X: 511
T: Folly as it flies
%R: jig
B: "Preston's Twenty Four Country Dances for the Year 1803", Tho. Preston, ed. p.2216 #1
F: http://folkopedia.efdss.org/images/archive/0/02/20121211105513%21Preston_24_1803.PDF
F: http://folkopedia.efdss.org/wiki/File:Preston_24_1803.PDF
Z: 2014 John Chambers <jc:trillian.mit.edu>
M: 6/8
L: 1/8
K: G
% - - - - - - - - - - - - - - - - - - - - - - - - -
|:\
Bcd def | gfg dBG | gfg dcB | ecA ABc |\
Bcd def | gfg bag | fga AB^c | d3 D3 :|
|:\
dBd dBd | ece gfe | fdf gdB | ABG AFD |\
Bcd def | gfg cde | dcB AGF | G3 G3 :|
% - - - - - - - - - - - - - - - - - - - - - - - - -
%%begintext align
%% Set & half right & left, the same back again,
%% lead down the middle & Allemande.
%%endtext

%%sep 1 1 500
%%sep 1 1 500
